!!!!SEGMENT: pl-sa--552-a-ix-32--042_anonim-valtz.krn
!!!id: 18xx:553
!!!COM: Anonim
!!!OTL: Valtz
!!!PDT:
!!!SMS-siglum: PL-SA
!!!SMS-shelfmark: 552/A IX 32
!!!SMS-variant:
!!!SMS-altvar:
!!!NIFC-rismID: 1001069587
!!!system-decoration: {(s1,s2)}
**kern	**kern
*part1	*part1
*staff2	*staff1
*	*I"Piano
*clefF4	*clefG2
*k[]	*k[]
*M3/8	*M3/8
*>[A,A,B,B]	*>[A,A,B,B]
*>A	*>A
!	!LO:TX:a:Bi:t=Valtz:rj
8r	8gg\
=1	=1
8G\L	8ff\L
8B\	8dd\
8d\J	8b\J
=2	=2
*rep	*
8G\L	4g/
8B\	.
8d\J	16a\LL
.	16b\JJ
*Xrep	*
=3	=3
8G\L	16cc\LL
.	16b\
8d\	16cc\
.	16dd\
8f\J	16ee\
.	16ff\JJ
=4	=4
*rep	*
8G\L	16gg\LL
.	16ff#X\
8d\	16aa\
.	16gg\
8f\J	16ff#\
.	16gg\JJ
*Xrep	*
=5	=5
8G\L	8ff\L
8B\	8dd\
8d\J	8b\J
=6	=6
8G\L	4g/
8d\	.
8f\J	16a\LL
.	16b\JJ
=7	=7
4e 4c 4G\	16cc\LL
.	16b\
.	16cc\
.	16ee\
8f 8d 8G\	16dd\
.	16b\JJ
=8	=8
4e 4c\	4cc\
=:|!|:	=:|!|:
*>B	*>B
8r	8cc\
=9	=9
*tremolo	*
16BLL 16G\	8dd\L
16d\	.
16B 16G\	16dd\L
16d\	16bb\J
16B 16G\	8gg\J
16d\JJ	.
=10	=10
16ALL 16F#X\	8dd\L
16d\	.
16A 16F#\	16dd\L
16d\	16ccc\J
16A 16F#\	8aa\J
16d\JJ	.
=11	=11
16BLL 16G\	8dd\L
16d\	.
16B 16G\	16dd\L
16d\	16ddd\J
16B 16G\	8bb\J
16d\JJ	.
=12	=12
16ALL 16D\	8dd\L
16d\	.
16A 16D\	16dd\L
16d\	16ccc\J
16A 16D\	8aa\J
16d\JJ	.
=13	=13
16BLL 16G\	8dd\L
16d\	.
16B 16G\	16dd\L
16d\	16bb\J
16B 16G\	8gg\J
16d\JJ	.
=14	=14
!LO:TX:a:t=P:w źródle brak kropek przy oznaczeniu tremolo:problem	!
16ALL 16F#X\	8dd\L
16d\	.
16A 16F#\	16dd\L
16d\	16ccc\J
16A 16F#\	8aa\J
16d\JJ	.
*Xtremolo	*
=15	=15
4B 4G 4D\	16dd\LL
.	16bb\
.	16ddd\
.	16bb\
8c 8A 8D\	16ccc\
.	16aa\JJ
=16	=16
4G 4BB\	4gg\
!!LO:TX:a:t=P:ozdobna kreska końcowa &colon;||&colon; połączona z repetycją:problem
==:|!	==:|!
*-	*-
!!title: @{OTL};
!!!RDF**kern: > = above
!!!RDF**kern: < = below
!!!ENC: Tomasz Grochalski
!!!END: 2020-06-18
!!!EED: Wojciech Jakubiak-Danek
!!!EST: 2020-12-13
!!!URL-scan: http://bc.bdsandomierz.pl/dlibra/publication/1308/edition/1276/content
!!!ONB-nifc: Str. 22, s. 6
